!!!OTL: 236. Kozatshke
!!!Genre:	Kozatshke
!!!Mode:	Major
!!!Listening/dance:	dance
!!!:	*e:
!!!One_Mode:	no
**kern
*thru
*I"P1
*clefG2
*k[f#]
*G:
*M2/4
*>A
=1
!LO:TX:a:i:t=G-major
(8ddL
16ggL)
16dd'JJ
(16bLL
16dd)
16a
16ccJJ
=2
(16bLL
16dd)
16gg
16ddJJ
(16bLL
16dd)
16a
16ccJJ
=3
16bLL
16dd
16gg
16ff#JJ
8eeL
16aaL
16ggJJ
*>A1
=4
16ff#LL
16dd
16ee
16ff#JJ
8aaL
8ggJ
*>A
=1
!LO:TX:a:i:t=G-major
(8ddL
16ggL)
16dd'JJ
(16bLL
16dd)
16a
16ccJJ
=2
(16bLL
16dd)
16gg
16ddJJ
(16bLL
16dd)
16a
16ccJJ
=3
16bLL
16dd
16gg
16ff#JJ
8eeL
16aaL
16ggJJ
*>A2
=5:|!
16ff#LL
16dd
16ee
16ff#JJ
8.ggL
16bJk
!!!Begin-Modulation
*-
